X:1
T:Bridal March
C:Wagner
M:2/4
L:1/8
K:G
(D2 G) z/G/|G3z|(D2 A) z/F/|G3z|(D2 G>c|
c2 B>A|G2 F>G|A3)z|(D2 G) z/G/|G3z|(D2 A) z/F/|G3z|(D2 G>B|d2 B>G)|
(E2 A>B|G4):|

